assets/food_24.svg

<svg viewBox="0 0 48.4762 28.0264" xmlns="http://www.w3.org/2000/svg"><path d="m2.22 5.6648c.7173 1.36.8867.2394.7232 3.6483s-1.206 6.6832 3.14 11.4467 10.9323 6.0047 13.4039 6.2315 15.5011 2.3668 26.2921-8.7982l.83-.9591s1.3409-1.6732 1.0832-2.1589a2.9 2.9 0 0 0 -2.2195-1.5861c-1.1313-.008-11.97 5.5437-20.25 4.4716a23.7563 23.7563 0 0 1 -16.8329-9.6178c-2.5581-3.2584-3.0648-3.9428-3.0648-3.9428l-1.0119-3.33-3.5633 2.2969s1.1069 1.6096 1.47 2.2979z" fill="#ffce43"/><path d="m45.9259 19.1113c-6.8981 6.8981-15.6375 9.808-26.0159 8.6779l-.4917-.0511c-1.4546-.1336-8.9631-1.0745-13.8883-6.4727-3.9637-4.3435-3.683-7.6667-3.4361-10.5983.0393-.4634.078-.926.1-1.39.1057-2.2035.0566-2.2635-.0891-2.441a4.3754 4.3754 0 0 1 -.5482-.8218c-.281-.5325-1.1234-1.7851-1.4245-2.2229a.7507.7507 0 0 1 .2113-1.0551l3.5631-2.2963a.75.75 0 0 1 1.1246.4122l.9729 3.202c.2172.2869.9616 1.2592 2.9762 3.8255a22.8952 22.8952 0 0 0 16.3388 9.3367c6.0715.7869 13.7913-2.1876 17.5012-3.6173a10.0915 10.0915 0 0 1 2.6582-.86 3.6071 3.6071 0 0 1 2.8768 1.9846c.1212.2282.4885.9215-1.1605 2.9793l-.8483.9809c-.1384.1439-.28.2868-.4205.4274zm-43.0427-13.7966a2.9754 2.9754 0 0 0 .38.5687c.5317.6463.5473.9982.4292 3.4654-.0228.4827-.0636.9626-.1043 1.4439-.2427 2.8806-.4723 5.6017 3.0494 9.4617 4.5527 4.9891 11.56 5.8651 12.9182 5.99l.5165.0538c10.1049 1.1 18.5861-1.813 25.1679-8.6268l.8024-.9281a6.7221 6.7221 0 0 0 .9111-1.4456 2.11 2.11 0 0 0 -1.4863-1.0589c-.2044.0262-1.1726.3991-2.1079.76-3.8256 1.4736-11.7843 4.5406-18.2332 3.7057a24.5716 24.5716 0 0 1 -17.3262-9.8988c-2.536-3.23-3.0573-3.9322-3.0784-3.9609a.7556.7556 0 0 1 -.1146-.2278l-.7222-2.3782-2.0848 1.3427c.3615.5417.8532 1.2972 1.0828 1.7332z" fill="#3a3939"/><path d="m1.062 2.0382-.312 1.3287 1.3026-.3815a1.9646 1.9646 0 0 0 .8351-.4943l1.4256-1.4211-1.4-.1971a1.0146 1.0146 0 0 0 -1.2273.1987l-.3563.3817a1.015 1.015 0 0 0 -.2677.5849z" fill="#d29b6e"/><g fill="#3a3939"><path d="m4.8436 1.6-.0007.0006-1.4253 1.4216a2.7208 2.7208 0 0 1 -1.1552.6829l-1.3013.3815a.75.75 0 0 1 -.9411-.8915l.3027-1.2888a1.7719 1.7719 0 0 1 .4599-.9663l.3535-.38a1.7825 1.7825 0 0 1 1.9974-.4136l1.2844.181a.75.75 0 0 1 .4257 1.2726zm-3.0687.685.0669-.02a1.2182 1.2182 0 0 0 .5176-.3062l.3625-.3612a.7775.7775 0 0 1 -.1678-.0669.2483.2483 0 0 0 -.32.0524l-.3549.3812a.2544.2544 0 0 0 -.0708.1509.716.716 0 0 1 -.0155.0943zm-.7127-.2472.0069-.007z"/><path d="m41.9885 20.0614c-.0152.0152-.0308.0294-.0474.0432-.4036.3415-10.0776 8.3-26.5178 3.809-.1319-.0352-13.6133-3.7576-13.2293-14.6269a.75.75 0 1 1 1.4992.0533c-.3422 9.6711 11.9968 13.0917 12.1216 13.1255 15.691 4.2862 25.0657-3.4285 25.1589-3.5065a.75.75 0 0 1 1.0148 1.1024z"/><path d="m46.151 16.7552a21.2936 21.2936 0 0 1 -2.7794 2.1979.75.75 0 1 1 -.85-1.2353 14.747 14.747 0 0 0 2.9793-2.4878.7281.7281 0 0 1 .9-.5272.768.768 0 0 1 .5413.93 2.8452 2.8452 0 0 1 -.7912 1.1224z"/><path d="m47.8877 15.98a.7489.7489 0 0 1 -.7928.1726 3.6009 3.6009 0 0 1 -2.36-2.5277.75.75 0 0 1 1.4736-.28 2.1338 2.1338 0 0 0 1.4105 1.4028.7493.7493 0 0 1 .2686 1.2326z"/><path d="m11.5463 19.1506a.5.5 0 0 1 -.57.0967c-3.8854-1.8673-4.5124-3.9373-4.5369-4.0248a.5.5 0 0 1 .96-.279c.0138.0415.6069 1.7671 4.01 3.4033a.4994.4994 0 0 1 .2338.6668.4938.4938 0 0 1 -.0969.137z"/></g></svg>

<svg xmlns="http://www.w3.org/2000/svg" viewBox="0 0 48.4762 28.0264"><defs><style>.cls-1{fill:#ffce43;}.cls-2{fill:#3a3939;}.cls-3{fill:#d29b6e;}</style></defs><title>Asset 155</title><g id="Layer_2" data-name="Layer 2"><g id="Layer_3" data-name="Layer 3"><path class="cls-1" d="M2.22,5.6648c.7173,1.36.8867.2394.7232,3.6483s-1.206,6.6832,3.14,11.4467,10.9323,6.0047,13.4039,6.2315,15.5011,2.3668,26.2921-8.7982l.83-.9591s1.3409-1.6732,1.0832-2.1589a2.9,2.9,0,0,0-2.2195-1.5861c-1.1313-.008-11.97,5.5437-20.25,4.4716A23.7563,23.7563,0,0,1,8.39,8.3428C5.8319,5.0844,5.3252,4.4,5.3252,4.4L4.3133,1.07.75,3.3669S1.8569,4.9765,2.22,5.6648Z"/><path class="cls-2" d="M45.9259,19.1113c-6.8981,6.8981-15.6375,9.808-26.0159,8.6779l-.4917-.0511c-1.4546-.1336-8.9631-1.0745-13.8883-6.4727-3.9637-4.3435-3.683-7.6667-3.4361-10.5983.0393-.4634.078-.926.1-1.39.1057-2.2035.0566-2.2635-.0891-2.441a4.3754,4.3754,0,0,1-.5482-.8218h0C1.2756,5.4818.4332,4.2292.1321,3.7914A.7507.7507,0,0,1,.3434,2.7363L3.9065.44A.75.75,0,0,1,5.0311.8522l.9729,3.202c.2172.2869.9616,1.2592,2.9762,3.8255A22.8952,22.8952,0,0,0,25.319,17.2164c6.0715.7869,13.7913-2.1876,17.5012-3.6173a10.0915,10.0915,0,0,1,2.6582-.86,3.6071,3.6071,0,0,1,2.8768,1.9846c.1212.2282.4885.9215-1.1605,2.9793l-.8483.9809C46.208,18.8278,46.0664,18.9707,45.9259,19.1113ZM2.8832,5.3147a2.9754,2.9754,0,0,0,.38.5687c.5317.6463.5473.9982.4292,3.4654-.0228.4827-.0636.9626-.1043,1.4439-.2427,2.8806-.4723,5.6017,3.0494,9.4617,4.5527,4.9891,11.56,5.8651,12.9182,5.99l.5165.0538c10.1049,1.1,18.5861-1.813,25.1679-8.6268l.8024-.9281a6.7221,6.7221,0,0,0,.9111-1.4456,2.11,2.11,0,0,0-1.4863-1.0589c-.2044.0262-1.1726.3991-2.1079.76-3.8256,1.4736-11.7843,4.5406-18.2332,3.7057A24.5716,24.5716,0,0,1,7.8,8.8057c-2.536-3.23-3.0573-3.9322-3.0784-3.9609a.7556.7556,0,0,1-.1146-.2278L3.8848,2.2388,1.8,3.5815c.3615.5417.8532,1.2972,1.0828,1.7332Z"/><path class="cls-3" d="M1.062,2.0382.75,3.3669l1.3026-.3815a1.9646,1.9646,0,0,0,.8351-.4943L4.3133,1.07l-1.4-.1971a1.0146,1.0146,0,0,0-1.2273.1987l-.3563.3817A1.015,1.015,0,0,0,1.062,2.0382Z"/><path class="cls-2" d="M4.8436,1.6l-.0007.0006L3.4176,3.0222a2.7208,2.7208,0,0,1-1.1552.6829L.9611,4.0866A.75.75,0,0,1,.02,3.1951L.3227,1.9063A1.7719,1.7719,0,0,1,.7826.94L1.1361.56A1.7825,1.7825,0,0,1,3.1335.1464l1.2844.181A.75.75,0,0,1,4.8436,1.6Zm-3.0687.685.0669-.02a1.2182,1.2182,0,0,0,.5176-.3062l.3625-.3612a.7775.7775,0,0,1-.1678-.0669.2483.2483,0,0,0-.32.0524l-.3549.3812a.2544.2544,0,0,0-.0708.1509.716.716,0,0,1-.0155.0943Zm-.7127-.2472.0069-.007Z"/><path class="cls-2" d="M41.9885,20.0614c-.0152.0152-.0308.0294-.0474.0432-.4036.3415-10.0776,8.3-26.5178,3.809C15.2914,23.8784,1.81,20.156,2.194,9.2867A.75.75,0,1,1,3.6932,9.34C3.351,19.0111,15.69,22.4317,15.8148,22.4655c15.691,4.2862,25.0657-3.4285,25.1589-3.5065a.75.75,0,0,1,1.0148,1.1024Z"/><path class="cls-2" d="M46.151,16.7552a21.2936,21.2936,0,0,1-2.7794,2.1979.75.75,0,1,1-.85-1.2353A14.747,14.747,0,0,0,45.5009,15.23a.7281.7281,0,0,1,.9-.5272.768.768,0,0,1,.5413.93A2.8452,2.8452,0,0,1,46.151,16.7552Z"/><path class="cls-2" d="M47.8877,15.98a.7489.7489,0,0,1-.7928.1726,3.6009,3.6009,0,0,1-2.36-2.5277.75.75,0,0,1,1.4736-.28,2.1338,2.1338,0,0,0,1.4105,1.4028.7493.7493,0,0,1,.2686,1.2326Z"/><path class="cls-2" d="M11.5463,19.1506a.5.5,0,0,1-.57.0967C7.0909,17.38,6.4639,15.31,6.4394,15.2225a.5.5,0,0,1,.96-.279c.0138.0415.6069,1.7671,4.01,3.4033a.4994.4994,0,0,1,.2338.6668A.4938.4938,0,0,1,11.5463,19.1506Z"/></g></g></svg>
